X:1
T:Henry, My Son
M:4/4
L:1/8
K:C
 B2 BB BA G2| B d2 B d4| B2 BB BA GA|B-A AB A4| B3 AG D3| d3 cc B3|\
 B2 GA B2 GA| B2 GA B2 GA| B3 B B2 B2| D8|
